Numix/22x22/categories/applications-debugging.svg

<?xml version="1.0" encoding="UTF-8" standalone="no"?>
<svg
   xmlns:dc="http://purl.org/dc/elements/1.1/"
   xmlns:cc="http://creativecommons.org/ns#"
   xmlns:rdf="http://www.w3.org/1999/02/22-rdf-syntax-ns#"
   xmlns:svg="http://www.w3.org/2000/svg"
   xmlns="http://www.w3.org/2000/svg"
   xmlns:sodipodi="http://sodipodi.sourceforge.net/DTD/sodipodi-0.dtd"
   xmlns:inkscape="http://www.inkscape.org/namespaces/inkscape"
   width="22"
   height="22"
   viewBox="0 0 22 22"
   id="svg2"
   version="1.1"
   inkscape:version="0.91 r"
   sodipodi:docname="applications-debugging.svg">
  <metadata
     id="metadata48">
    <rdf:RDF>
      <cc:Work
         rdf:about="">
        <dc:format>image/svg+xml</dc:format>
        <dc:type
           rdf:resource="http://purl.org/dc/dcmitype/StillImage" />
        <dc:title></dc:title>
      </cc:Work>
    </rdf:RDF>
  </metadata>
  <defs
     id="defs46" />
  <sodipodi:namedview
     pagecolor="#ffffff"
     bordercolor="#666666"
     borderopacity="1"
     objecttolerance="10"
     gridtolerance="10"
     guidetolerance="10"
     inkscape:pageopacity="0"
     inkscape:pageshadow="2"
     inkscape:window-width="1920"
     inkscape:window-height="1056"
     id="namedview44"
     showgrid="true"
     inkscape:zoom="30.341309"
     inkscape:cx="5.3988028"
     inkscape:cy="11.051582"
     inkscape:window-x="0"
     inkscape:window-y="24"
     inkscape:window-maximized="1"
     inkscape:current-layer="svg2">
    <inkscape:grid
       type="xygrid"
       id="grid4176" />
  </sodipodi:namedview>
  <g
     id="g4196"
     transform="translate(0.11450821,0.11436204)">
    <path
       d="m 11.992188,4.933594 c -0.07422,0 -0.152344,0.019531 -0.21875,0.0625 -0.06641,0.046875 -0.125,0.121094 -0.121094,0.21875 0.0078,0.039062 0.0039,0.070312 0,0.109375 0,0.109375 0.08984,0.199219 0.203125,0.199219 0.109375,0 0.199219,-0.089844 0.199219,-0.199219 0,-0.109375 -0.08984,-0.199219 -0.199219,-0.203125 0.03906,-0.023438 0.09375,-0.035156 0.136719,-0.039063 0.15625,0 0.273437,0.089844 0.359374,0.222657 0.08594,0.136718 0.128907,0.316406 0.125,0.460937 -0.0078,0.363281 -0.1875,0.667969 -0.453124,0.902344 C 11.761719,6.902344 11.410156,7.0625 11.074219,7.125 l 0.02734,0.144531 C 11.460938,7.203125 11.835938,7.035156 12.125,6.78125 12.414062,6.527344 12.621094,6.179688 12.628906,5.765625 12.632812,5.589844 12.585938,5.390625 12.480469,5.226562 12.375,5.058594 12.207031,4.933594 11.992188,4.933594 Z"
       id="path6"
       inkscape:connector-curvature="0"
       style="fill:#ec7878" />
    <path
       d="m 9.78125,4.933594 c 0.070312,0 0.148438,0.019531 0.214844,0.0625 0.066406,0.046875 0.125,0.121094 0.125,0.21875 -0.01172,0.039062 -0.0039,0.070312 -0.0039,0.109375 0,0.109375 -0.08984,0.199219 -0.199219,0.199219 C 9.808594,5.523438 9.71875,5.433594 9.71875,5.324219 9.71875,5.214844 9.804688,5.125 9.914062,5.121094 9.875,5.097656 9.820312,5.085938 9.78125,5.082031 c -0.160156,0 -0.277344,0.089844 -0.363281,0.222657 -0.082031,0.136718 -0.125,0.316406 -0.125,0.460937 0.00781,0.363281 0.1875,0.667969 0.453125,0.902344 0.265625,0.234375 0.617187,0.394531 0.949218,0.457031 l -0.02734,0.144531 C 10.308594,7.203125 9.933594,7.035156 9.644531,6.78125 9.355469,6.527344 9.152344,6.179688 9.140625,5.765625 c 0,-0.175781 0.046875,-0.375 0.152344,-0.539063 C 9.394531,5.058594 9.5625,4.933594 9.78125,4.933594 Z"
       id="path8"
       inkscape:connector-curvature="0"
       style="fill:#ec7878" />
    <path
       d="M 10.734375,6.382812 C 9.878906,6.421875 9.046875,6.839844 8.496094,7.492188 8.207031,7.800781 7.941406,8.152344 7.816406,8.5625 7.820312,8.628906 7.84375,8.691406 7.863281,8.753906 7.679688,8.765625 7.449219,8.742188 7.324219,8.902344 7.09375,9.15625 7.039062,9.511719 6.925781,9.824219 c -0.519531,1.789062 -0.253906,3.828125 0.847657,5.347656 0.597656,0.816406 1.488281,1.460937 2.503906,1.628906 0.171875,0.01563 0.367187,0.0625 0.523437,-0.02734 0.05859,-0.05078 0.144531,-0.03516 0.191407,0.01562 0.214843,0.109376 0.453124,0.0039 0.671874,-0.02344 1.039063,-0.230469 1.933594,-0.941406 2.492188,-1.835937 1.039062,-1.597657 1.210938,-3.695313 0.566406,-5.480469 C 14.636719,9.234375 14.554688,9.007812 14.386719,8.84375 14.273438,8.765625 14.128906,8.738281 13.996094,8.730469 14.082031,8.550781 14.023438,8.335938 13.894531,8.191406 13.429688,7.429688 12.734375,6.769531 11.859375,6.507812 c -0.367187,-0.101562 -0.746094,-0.128906 -1.125,-0.125 z"
       id="path10"
       inkscape:connector-curvature="0"
       style="fill:#ec7878" />
    <path
       d="m 10.847656,6.59375 c -0.0039,0 -0.01172,0 -0.01953,0 C 10.53125,6.617188 10.222656,6.648438 9.9375,6.746094 9.117188,7.035156 8.492188,7.699219 8.066406,8.4375 8,8.554688 8.046875,8.710938 8.175781,8.722656 c 0.917969,0.00391 1.835938,0 2.753907,0.00391 0,0 0,0 0.0039,0 0.917968,-0.00391 1.832031,0 2.75,-0.00391 C 13.816406,8.710938 13.863281,8.554688 13.796875,8.4375 13.367188,7.699219 12.742188,7.035156 11.921875,6.746094 11.636719,6.648438 11.332031,6.617188 11.03125,6.59375 10.95312,6.58984 10.96875,6.613281 10.93359,6.613281 10.89843,6.609371 10.91015,6.589844 10.84765,6.59375 Z"
       id="path12"
       inkscape:connector-curvature="0"
       style="fill:#ec7878" />
    <path
       d="m 11.507812,8.953125 c -0.269531,0 -0.484374,0.21875 -0.484374,0.492187 l 0,6.992188 c 0,0.09766 0,0.171875 0.128906,0.183594 2.050781,-0.113282 3.734375,-2.304688 3.734375,-4.984375 0,-0.882813 -0.175781,-1.714844 -0.488281,-2.433594 0,0 -0.0039,0 -0.0039,0 -0.0039,-0.015625 -0.01172,-0.03125 -0.01953,-0.046875 0,-0.00391 0,-0.00391 0,-0.00391 0,-0.00391 0,-0.00391 0,-0.00391 C 14.316406,9.03125 14.199219,8.953125 14.0625,8.953125 Z"
       id="path14"
       inkscape:connector-curvature="0"
       style="fill:#ec7878" />
    <path
       d="m 10.261719,8.953125 c 0.269531,0 0.488281,0.21875 0.488281,0.492187 l 0,6.992188 c 0,0.09766 0,0.171875 -0.132812,0.183594 C 8.566406,16.507812 6.882812,14.316406 6.882812,11.636719 6.882812,10.753906 7.0625,9.921875 7.375,9.203125 7.378906,9.1875 7.386719,9.171875 7.394531,9.15625 c 0,-0.00391 0,-0.00391 0,-0.00391 0,-0.00391 0,-0.00391 0,-0.00391 0.058594,-0.117188 0.175781,-0.195313 0.3125,-0.195313 z"
       id="path16"
       inkscape:connector-curvature="0"
       style="fill:#ec7878" />
    <g
       style="fill:#ec7878;fill-rule:evenodd"
       id="g18">
      <path
         d="m 8.027344,9.15625 -0.3125,0.386719 -0.492188,-0.035157 0.273438,0.410157 -0.1875,0.460937 0.476562,-0.132812 0.375,0.320312 L 8.1875,10.074219 8.605469,9.8125 8.144531,9.636719 Z m 1.542968,0.46875 -0.261718,1.320312 -1.230469,0.527344 1.167969,0.660156 0.125,1.335938 0.984375,-0.910156 1.3125,0.292968 -0.5625,-1.21875 0.6875,-1.15625 -1.335938,0.160157 z m 4.03125,0.609375 -0.308593,0.382813 -0.496094,-0.03516 0.269531,0.414063 -0.183594,0.457031 0.476563,-0.128906 0.375,0.320312 0.02344,-0.496093 0.421876,-0.257813 -0.464844,-0.175781 z M 7.648438,12.59375 7.269531,13.355469 6.917969,13.40625 c 0.125,0.421875 0.292969,0.828125 0.507812,1.214844 L 7.648438,14.503906 8.394531,14.898438 8.25,14.066406 8.855469,13.476562 8.019531,13.355469 Z m 6.144531,0.07422 -0.742188,0.84375 -1.117187,-0.132813 0.578125,0.964844 -0.472657,1.019531 1.09375,-0.246093 0.515626,0.476562 c 0.140624,-0.148438 0.265624,-0.304688 0.382812,-0.46875 l 0.03125,-0.367188 0.296875,-0.164062 c 0.101563,-0.179688 0.191406,-0.371094 0.269531,-0.558594 l -0.617187,-0.265625 z m -3.691407,2.277343 -0.308593,0.382813 -0.496094,-0.03516 0.269531,0.414062 -0.183594,0.460938 0.476563,-0.128907 0.375,0.316407 0.02344,-0.492188 0.421876,-0.261719 -0.464844,-0.175781 z"
         id="path20"
         inkscape:connector-curvature="0" />
      <path
         style="fill-opacity:0.90200022"
         d="m 14.375,12.898438 c 0,0.773437 -1.523438,1.402343 -3.40625,1.402343 -1.878906,0 -3.40625,-0.628906 -3.40625,-1.402343 C 7.5625,12.125 9.089844,11.5 10.96875,11.5 c 1.882812,0 3.40625,0.625 3.40625,1.398438 z"
         id="path22"
         inkscape:connector-curvature="0" />
    </g>
    <path
       style="fill:#ec7878;fill-opacity:0.45899999"
       d="m 8.453125,15.414062 c 0.542969,0.554688 1.25,0.960938 2.03125,1.046876 0.04687,0.01562 0.140625,0.01172 0.117187,-0.0625 -0.0039,-0.171876 -0.0039,-0.339844 -0.0039,-0.511719 0,-0.105469 0,-0.08594 -0.07813,-0.03516 C 9.71875,16.339844 9.035156,15.75 8.453125,15.414062 Z m 4.839844,0.03516 c -0.585938,0.335937 -1.265625,0.929687 -2.070313,0.441406 -0.07813,-0.05078 -0.07813,-0.07031 -0.07422,0.03516 0,0.167969 -0.0039,0.339844 -0.0078,0.511719 -0.02344,0.07031 0.07031,0.07813 0.121094,0.0625 0.777343,-0.08594 1.484375,-0.492188 2.03125,-1.050781 z"
       id="path24"
       inkscape:connector-curvature="0" />
    <g
       style="fill:#ec7878;fill-rule:evenodd"
       id="g26">
      <path
         d="m 13.054688,8.253906 c 0,0.949219 -0.957032,1.71875 -2.140626,1.71875 -1.179687,0 -2.140624,-0.769531 -2.140624,-1.71875 0,-0.949218 0.960937,-1.71875 2.140624,-1.71875 1.183594,0 2.140626,0.769532 2.140626,1.71875 z"
         id="path28"
         inkscape:connector-curvature="0" />
      <path
         d="m 10.039062,5.269531 c 0,0.066407 -0.054687,0.121094 -0.117187,0.121094 -0.066406,0 -0.117187,-0.054687 -0.117187,-0.121094 0,-0.070312 0.050781,-0.125 0.117187,-0.125 0.0625,0 0.117187,0.054688 0.117187,0.125 z"
         id="path30"
         inkscape:connector-curvature="0" />
      <path
         d="m 11.964844,5.269531 c 0,0.066407 -0.05078,0.121094 -0.113282,0.121094 -0.06641,0 -0.121093,-0.054687 -0.121093,-0.121094 0,-0.070312 0.05469,-0.125 0.121093,-0.125 0.0625,0 0.113282,0.054688 0.113282,0.125 z"
         id="path32"
         inkscape:connector-curvature="0" />
    </g>
  </g>
  <path
     style="fill:none;stroke:#ec7878;stroke-width:0.75;stroke-linecap:round;stroke-linejoin:round;stroke-miterlimit:4;stroke-dasharray:none"
     d="m 18.125,10.998032 c 0,3.937551 -3.190241,7.126968 -7.123037,7.126968 -3.9367233,0 -7.1269631,-3.189417 -7.1269631,-7.126968 0,-3.9336148 3.1902398,-7.123032 7.1269631,-7.123032 3.932796,0 7.123037,3.1894172 7.123037,7.123032 z"
     id="path42"
     inkscape:connector-curvature="0" />
  <path
     style="fill:none;fill-rule:evenodd;stroke:#ec7878;stroke-width:0.99999994px;stroke-linecap:round;stroke-linejoin:miter;stroke-opacity:1"
     d="m 10.99995,2.5069496 0,16.9859294"
     id="path4212"
     inkscape:connector-curvature="0" />
  <path
     style="fill:none;fill-rule:evenodd;stroke:#ec7878;stroke-width:1px;stroke-linecap:round;stroke-linejoin:miter;stroke-opacity:1"
     d="M 19.49305,11 2.5071212,11"
     id="path4212-5"
     inkscape:connector-curvature="0" />
</svg>

<svg width="22" xmlns="http://www.w3.org/2000/svg" height="22" viewBox="0 0 22 22" xmlns:xlink="http://www.w3.org/1999/xlink">
<g style="fill:#ec7878">
<path d="M 11.992188 4.933594 C 11.917969 4.933594 11.839844 4.953125 11.773438 4.996094 C 11.707031 5.042969 11.648438 5.117188 11.652344 5.214844 C 11.660156 5.253906 11.65625 5.285156 11.652344 5.324219 C 11.652344 5.433594 11.742188 5.523438 11.855469 5.523438 C 11.964844 5.523438 12.054688 5.433594 12.054688 5.324219 C 12.054688 5.214844 11.964844 5.125 11.855469 5.121094 C 11.894531 5.097656 11.949219 5.085938 11.992188 5.082031 C 12.148438 5.082031 12.265625 5.171875 12.351562 5.304688 C 12.4375 5.441406 12.480469 5.621094 12.476562 5.765625 C 12.46875 6.128906 12.289062 6.433594 12.023438 6.667969 C 11.761719 6.902344 11.410156 7.0625 11.074219 7.125 L 11.101562 7.269531 C 11.460938 7.203125 11.835938 7.035156 12.125 6.78125 C 12.414062 6.527344 12.621094 6.179688 12.628906 5.765625 C 12.632812 5.589844 12.585938 5.390625 12.480469 5.226562 C 12.375 5.058594 12.207031 4.933594 11.992188 4.933594 Z "/>
<path d="M 9.78125 4.933594 C 9.851562 4.933594 9.929688 4.953125 9.996094 4.996094 C 10.0625 5.042969 10.121094 5.117188 10.121094 5.214844 C 10.109375 5.253906 10.117188 5.285156 10.117188 5.324219 C 10.117188 5.433594 10.027344 5.523438 9.917969 5.523438 C 9.808594 5.523438 9.71875 5.433594 9.71875 5.324219 C 9.71875 5.214844 9.804688 5.125 9.914062 5.121094 C 9.875 5.097656 9.820312 5.085938 9.78125 5.082031 C 9.621094 5.082031 9.503906 5.171875 9.417969 5.304688 C 9.335938 5.441406 9.292969 5.621094 9.292969 5.765625 C 9.300781 6.128906 9.480469 6.433594 9.746094 6.667969 C 10.011719 6.902344 10.363281 7.0625 10.695312 7.125 L 10.667969 7.269531 C 10.308594 7.203125 9.933594 7.035156 9.644531 6.78125 C 9.355469 6.527344 9.152344 6.179688 9.140625 5.765625 C 9.140625 5.589844 9.1875 5.390625 9.292969 5.226562 C 9.394531 5.058594 9.5625 4.933594 9.78125 4.933594 Z "/>
<path d="M 10.734375 6.382812 C 9.878906 6.421875 9.046875 6.839844 8.496094 7.492188 C 8.207031 7.800781 7.941406 8.152344 7.816406 8.5625 C 7.820312 8.628906 7.84375 8.691406 7.863281 8.753906 C 7.679688 8.765625 7.449219 8.742188 7.324219 8.902344 C 7.09375 9.15625 7.039062 9.511719 6.925781 9.824219 C 6.40625 11.613281 6.671875 13.652344 7.773438 15.171875 C 8.371094 15.988281 9.261719 16.632812 10.277344 16.800781 C 10.449219 16.816406 10.644531 16.863281 10.800781 16.773438 C 10.859375 16.722656 10.945312 16.738281 10.992188 16.789062 C 11.207031 16.898438 11.445312 16.792969 11.664062 16.765625 C 12.703125 16.535156 13.597656 15.824219 14.15625 14.929688 C 15.195312 13.332031 15.367188 11.234375 14.722656 9.449219 C 14.636719 9.234375 14.554688 9.007812 14.386719 8.84375 C 14.273438 8.765625 14.128906 8.738281 13.996094 8.730469 C 14.082031 8.550781 14.023438 8.335938 13.894531 8.191406 C 13.429688 7.429688 12.734375 6.769531 11.859375 6.507812 C 11.492188 6.40625 11.113281 6.378906 10.734375 6.382812 Z "/>
<path d="M 10.847656 6.59375 C 10.84375 6.59375 10.835938 6.59375 10.828125 6.59375 C 10.53125 6.617188 10.222656 6.648438 9.9375 6.746094 C 9.117188 7.035156 8.492188 7.699219 8.066406 8.4375 C 8 8.554688 8.046875 8.710938 8.175781 8.722656 C 9.09375 8.726562 10.011719 8.722656 10.929688 8.726562 C 10.929688 8.726562 10.929688 8.726562 10.933594 8.726562 C 11.851562 8.722656 12.765625 8.726562 13.683594 8.722656 C 13.816406 8.710938 13.863281 8.554688 13.796875 8.4375 C 13.367188 7.699219 12.742188 7.035156 11.921875 6.746094 C 11.636719 6.648438 11.332031 6.617188 11.03125 6.59375 C 10.953125 6.589844 10.96875 6.613281 10.933594 6.613281 C 10.898438 6.609375 10.910156 6.589844 10.847656 6.59375 Z "/>
<path d="M 11.507812 8.953125 C 11.238281 8.953125 11.023438 9.171875 11.023438 9.445312 L 11.023438 16.4375 C 11.023438 16.535156 11.023438 16.609375 11.152344 16.621094 C 13.203125 16.507812 14.886719 14.316406 14.886719 11.636719 C 14.886719 10.753906 14.710938 9.921875 14.398438 9.203125 C 14.398438 9.203125 14.394531 9.203125 14.394531 9.203125 C 14.390625 9.1875 14.382812 9.171875 14.375 9.15625 C 14.375 9.152344 14.375 9.152344 14.375 9.152344 C 14.375 9.148438 14.375 9.148438 14.375 9.148438 C 14.316406 9.03125 14.199219 8.953125 14.0625 8.953125 Z "/>
<path d="M 10.261719 8.953125 C 10.53125 8.953125 10.75 9.171875 10.75 9.445312 L 10.75 16.4375 C 10.75 16.535156 10.75 16.609375 10.617188 16.621094 C 8.566406 16.507812 6.882812 14.316406 6.882812 11.636719 C 6.882812 10.753906 7.0625 9.921875 7.375 9.203125 C 7.378906 9.1875 7.386719 9.171875 7.394531 9.15625 C 7.394531 9.152344 7.394531 9.152344 7.394531 9.152344 C 7.394531 9.148438 7.394531 9.148438 7.394531 9.148438 C 7.453125 9.03125 7.570312 8.953125 7.707031 8.953125 Z "/>
<g style="fill-rule:evenodd">
<path d="M 8.027344 9.15625 L 7.714844 9.542969 L 7.222656 9.507812 L 7.496094 9.917969 L 7.308594 10.378906 L 7.785156 10.246094 L 8.160156 10.566406 L 8.1875 10.074219 L 8.605469 9.8125 L 8.144531 9.636719 Z M 9.570312 9.625 L 9.308594 10.945312 L 8.078125 11.472656 L 9.246094 12.132812 L 9.371094 13.46875 L 10.355469 12.558594 L 11.667969 12.851562 L 11.105469 11.632812 L 11.792969 10.476562 L 10.457031 10.636719 Z M 13.601562 10.234375 L 13.292969 10.617188 L 12.796875 10.582031 L 13.066406 10.996094 L 12.882812 11.453125 L 13.359375 11.324219 L 13.734375 11.644531 L 13.757812 11.148438 L 14.179688 10.890625 L 13.714844 10.714844 Z M 7.648438 12.59375 L 7.269531 13.355469 L 6.917969 13.40625 C 7.042969 13.828125 7.210938 14.234375 7.425781 14.621094 L 7.648438 14.503906 L 8.394531 14.898438 L 8.25 14.066406 L 8.855469 13.476562 L 8.019531 13.355469 Z M 13.792969 12.667969 L 13.050781 13.511719 L 11.933594 13.378906 L 12.511719 14.34375 L 12.039062 15.363281 L 13.132812 15.117188 L 13.648438 15.59375 C 13.789062 15.445312 13.914062 15.289062 14.03125 15.125 L 14.0625 14.757812 L 14.359375 14.59375 C 14.460938 14.414062 14.550781 14.222656 14.628906 14.035156 L 14.011719 13.769531 Z M 10.101562 14.945312 L 9.792969 15.328125 L 9.296875 15.292969 L 9.566406 15.707031 L 9.382812 16.167969 L 9.859375 16.039062 L 10.234375 16.355469 L 10.257812 15.863281 L 10.679688 15.601562 L 10.214844 15.425781 Z "/>
<path style="fill-opacity:.902" d="M 14.375 12.898438 C 14.375 13.671875 12.851562 14.300781 10.96875 14.300781 C 9.089844 14.300781 7.5625 13.671875 7.5625 12.898438 C 7.5625 12.125 9.089844 11.5 10.96875 11.5 C 12.851562 11.5 14.375 12.125 14.375 12.898438 Z "/>
</g>
<path style="fill-opacity:.459" d="M 8.453125 15.414062 C 8.996094 15.96875 9.703125 16.375 10.484375 16.460938 C 10.53125 16.476562 10.625 16.472656 10.601562 16.398438 C 10.597656 16.226562 10.597656 16.058594 10.597656 15.886719 C 10.597656 15.78125 10.597656 15.800781 10.519531 15.851562 C 9.71875 16.339844 9.035156 15.75 8.453125 15.414062 Z M 13.292969 15.449219 C 12.707031 15.785156 12.027344 16.378906 11.222656 15.890625 C 11.144531 15.839844 11.144531 15.820312 11.148438 15.925781 C 11.148438 16.09375 11.144531 16.265625 11.140625 16.4375 C 11.117188 16.507812 11.210938 16.515625 11.261719 16.5 C 12.039062 16.414062 12.746094 16.007812 13.292969 15.449219 Z "/>
<g style="fill-rule:evenodd">
<path d="M 13.054688 8.253906 C 13.054688 9.203125 12.097656 9.972656 10.914062 9.972656 C 9.734375 9.972656 8.773438 9.203125 8.773438 8.253906 C 8.773438 7.304688 9.734375 6.535156 10.914062 6.535156 C 12.097656 6.535156 13.054688 7.304688 13.054688 8.253906 Z "/>
<path d="M 10.039062 5.269531 C 10.039062 5.335938 9.984375 5.390625 9.921875 5.390625 C 9.855469 5.390625 9.804688 5.335938 9.804688 5.269531 C 9.804688 5.199219 9.855469 5.144531 9.921875 5.144531 C 9.984375 5.144531 10.039062 5.199219 10.039062 5.269531 Z "/>
<path d="M 11.964844 5.269531 C 11.964844 5.335938 11.914062 5.390625 11.851562 5.390625 C 11.785156 5.390625 11.730469 5.335938 11.730469 5.269531 C 11.730469 5.199219 11.785156 5.144531 11.851562 5.144531 C 11.914062 5.144531 11.964844 5.199219 11.964844 5.269531 Z "/>
</g>
<path d="M 15.234375 10.285156 C 14.925781 10.324219 14.703125 10.609375 14.742188 10.921875 C 14.78125 11.238281 15.066406 11.457031 15.378906 11.421875 L 19.835938 11.421875 C 20.039062 11.421875 20.230469 11.316406 20.335938 11.136719 C 20.433594 10.960938 20.433594 10.746094 20.335938 10.566406 C 20.230469 10.390625 20.039062 10.285156 19.835938 10.285156 L 15.378906 10.285156 C 15.328125 10.28125 15.28125 10.28125 15.234375 10.285156 Z "/>
<path d="M 1.878906 10.320312 C 1.675781 10.339844 1.496094 10.464844 1.414062 10.652344 C 1.328125 10.832031 1.347656 11.050781 1.464844 11.214844 C 1.585938 11.382812 1.78125 11.472656 1.984375 11.453125 L 6.476562 11.453125 C 6.679688 11.457031 6.871094 11.347656 6.972656 11.171875 C 7.078125 10.996094 7.078125 10.777344 6.972656 10.601562 C 6.871094 10.425781 6.679688 10.316406 6.476562 10.320312 L 1.984375 10.320312 C 1.949219 10.316406 1.914062 10.316406 1.878906 10.320312 Z "/>
<path d="M 10.792969 1.371094 C 10.519531 1.421875 10.324219 1.660156 10.332031 1.9375 L 10.332031 6.503906 C 10.328125 6.707031 10.4375 6.898438 10.613281 7 C 10.789062 7.101562 11.007812 7.101562 11.183594 7 C 11.359375 6.898438 11.46875 6.707031 11.460938 6.503906 L 11.460938 1.9375 C 11.46875 1.765625 11.394531 1.605469 11.261719 1.496094 C 11.132812 1.382812 10.960938 1.339844 10.792969 1.371094 Z "/>
<path d="M 10.824219 14.773438 C 10.527344 14.8125 10.308594 15.074219 10.332031 15.375 L 10.332031 19.835938 C 10.324219 20.039062 10.433594 20.230469 10.609375 20.332031 C 10.785156 20.4375 11.003906 20.4375 11.179688 20.332031 C 11.359375 20.230469 11.464844 20.039062 11.460938 19.835938 L 11.460938 15.375 C 11.472656 15.203125 11.410156 15.039062 11.285156 14.921875 C 11.164062 14.804688 10.992188 14.753906 10.824219 14.773438 Z "/>
</g>
<path style="fill:none;stroke:#ec7878;stroke-linejoin:round;stroke-linecap:round;stroke-width:8" d="M 278.364487 118.704149 C 278.364487 168.043333 225.50128 208.008072 160.333707 208.008072 C 95.10103 208.008072 42.237824 168.043333 42.237824 118.704149 C 42.237824 69.414304 95.10103 29.449565 160.333707 29.449565 C 225.50128 29.449565 278.364487 69.414304 278.364487 118.704149 Z " transform="matrix(.06 0 0 .07917 1.27426 1.52391)"/>
</svg>
